!!!OTL: AUS FEUER IST DER GEIST GESCHAFFEN
!!!ARE: Europa, Mitteleuropa, Deutschland
!!!SCT: B0337
!!!YEM: Copyright 1995, estate of Helmut Schaffrath.
**kern
*ICvox
*Ivox
*M4/4
*k[b-]
*F:
{8cc
8cc
8b-
=1
4.a
8a
4.a
8a
=2
8cc
8b-
4b-
8r}
{8b-
8b-
8a
=3
4.g
8g
4.cc
8b-
=4
4b-
4a
8r}
{8cc
8cc
8b-
=5
4.a
8a
4.a
8a
=6
8cc
8b-
4b-
8r}
{8b-
8b-
8a
=7
4.g
8g
4.cc
8b-
=8
4b-
4a
8r}
{8cc
8cc
8cc
=9
4.dd
8b-
4.ee
8cc
=10
2ff
8r}
{8dd
8dd
8dd
=11
4.cc
8f
4a
4g
=12
2f
8r}
==
!!!AGN: Trink - Lied
!!!ONB: ESAC (Essen Associative Code) Database: BOEHME
!!!AMT: simple quadruple
!!!AIN: vox
!!!EED: Helmut Schaffrath
!!!EEV: 1.0
*-
